!!!!SEGMENT: pl-wn--sd-xvi-qu-273--054_gomolka-mikolaj--moca-imienia-swego-i-swej-wszechmocnosci.krn
!!!cenid: 15xx:259
!!!COM: Gomółka, Mikołaj
!!!COM-rismid: pe30013343
!!!CDT: ~1535->1591/04/30
!!!CNT: Polish
!!!GTL: Melodiae na psalterz polski
!!!OTL: LIV. Mocą imienia swego i swej wszechmocności
!!!PDT: 1580
!!!AGN: Sacred
!!!SMS-siglum: PL-Wn
!!!SMS-shelfmark: SD XVI.Qu.273
!!!SMS-shelfwork: 054 G
!!!NIFC-rismid:
!!!ONB-nifc: Melodiae na psalterz polski
**kern	**text	**text	**kern	**text	**text	**kern	**text	**text	**kern	**text	**text
*part4	*part4	*part4	*part3	*part3	*part3	*part2	*part2	*part2	*part1	*part1	*part1
*staff4	*staff4	*staff4	*staff3	*staff3	*staff3	*staff2	*staff2	*staff2	*staff1	*staff1	*staff1
*clefF4	*	*	*clefC3	*	*	*clefC3	*	*	*clefC1	*	*
*M4/2	*	*	*M4/2	*	*	*M4/2	*	*	*M4/2	*	*
*met(C|)	*	*	*met(C|)	*	*	*met(C|)	*	*	*met(C|)	*	*
*>[A,A,B]	*	*	*>[A,A,B]	*	*	*>[A,A,B]	*	*	*>[A,A,B]	*	*
*>A	*	*	*>A	*	*	*>A	*	*	*>A	*	*
=1-	=1-	=1-	=1-	=1-	=1-	=1-	=1-	=1-	=1-	=1-	=1-
1G\	Mo-	Wy-	1B/	Mo--	Wy-	1d\	Mo-	.	1g\	Mo-	.
1.C/	-cą	-baẃ	1.c\	-cą i	-baẃ	1.e\	-cą	Wy-	1g\	-cą	Wy-
=2-	=2-	=2-	=2-	=2-	=2-	=2-	=2-	=2-	=2-	=2-	=2-
.	.	.	.	.	.	.	.	.	2cc\	i-	(-baẃ)
2G\	i-	mię	2B/	-mię-	mię	2g\	i-	-baẃ	2dd\	-mię-	mię,
2A\	-mię-	ſłu-	2c/	-nia	ſłu-	4e\	-mię-	.	2cc\	-nia	ſłu-
.	.	.	.	.	.	4f\	-nia	mię	.	.	.
2B\	-nia	-gę	2d\	.	-gę	2g\	.	ſłu-	4b\	.	-gę
.	.	.	.	.	.	.	.	.	4a\	.	.
=3-	=3-	=3-	=3-	=3-	=3-	=3-	=3-	=3-	=3-	=3-	=3-
2c\	.	.	1e\	ſwe-	twe-	4c\	.	gę	4g/	.	.
.	.	.	.	.	.	4d\	.	.	4f/	.	.
2C/	ſwe-	twe-	.	.	.	4e\	ſwe-	twe-	4g/	.	.
.	.	.	.	.	.	4f\	.	.	4a\	ſwe-	twe-
1G\	-go,	-go	2d\	-go,	-go	2g\	-go,	-go	2b\	-go	-go
.	.	.	2B/	y	z mych	2d\	y	z mych	2g/	y	z mych
=4-	=4-	=4-	=4-	=4-	=4-	=4-	=4-	=4-	=4-	=4-	=4-
2D/	y	z mych	2.d\	ſwéy	nie-	4f\	ſwéy	nie-	4a\	ſwéy	nie-
.	.	.	.	.	.	4e\	.	.	4g\	.	.
2D/	ſwéy	nie-	.	.	.	2d\	wſzech-	-beſ-	4f/	wſzech-	-beſ-
.	.	.	4c/	wſzech-	-beſ-	.	.	.	4e/	.	.
2G\	wſzech-	-beſ-	2B/	.	.	2d\	.	.	2d/	-moc-	-piecz-
2C/	(-moc-	-piecz-	2c/	-moc-	-piecz-	2e\	.	-piecz-	1g\	.	.
=5-	=5-	=5-	=5-	=5-	=5-	=5-	=5-	=5-	=5-	=5-	=5-
1D\	-no-	(-no-	1A/	-no-	-no-	2.d\	-moc-	-no-	.	.	.
.	.	.	.	.	.	.	.	.	2f/	-no-	-no-
.	.	.	.	.	.	4c/	-no-	-śći	.	.	.
1GG/	-śći)	-śći)	1G/	-śći	-śći.	1B/	-śći.	.	1g\	-śći	-śći.
*>B	*	*	*>B	*	*	*>B	*	*	*>B	*	*
=6:|!-	=6:|!-	=6:|!-	=6:|!-	=6:|!-	=6:|!-	=6:|!-	=6:|!-	=6:|!-	=6:|!-	=6:|!-	=6:|!-
1G\	.	.	1d\	.	.	1g\	Uſ-	.	1b\	Uſ-	.
2E\	Uſ-	.	1e\	Uſ-	.	2g\	-łyſz	.	2cc\	-łyſz	.
2C/	-łyſz	.	.	.	.	2g\	mod-	.	2cc\	mod-	.
=7-	=7-	=7-	=7-	=7-	=7-	=7-	=7-	=7-	=7-	=7-	=7-
!	!	!	!	!	!	!LO:SIC:v=w wyrazie "modlitwy" zabrakło "i" w alcie	!	!	!	!	!
1F\	mod-	.	1f\	-łyſz	.	1a\	-l-	.	2a\	-li-	.
.	.	.	.	.	.	.	.	.	1dd\	-twy	.
4D/	-li-	.	2f\	mod-	.	2a\	-twy	.	.	.	.
4E\	-twy	.	.	.	.	.	.	.	.	.	.
4F\	mo-	.	2f\	(-li-	.	2a\	.	.	4cc\	.	.
4G\	-ie,	.	.	.	.	.	.	.	4b\	.	.
=8-	=8-	=8-	=8-	=8-	=8-	=8-	=8-	=8-	=8-	=8-	=8-
2.A\	Bo-	.	1e\	-twy)	.	1a\	.	.	4cc\	mo-	.
.	.	.	.	.	.	.	.	.	2dd\	-ie,	.
4G\	-że	.	.	.	.	.	.	.	4cc\	.	.
2F#\X	nie-	.	2d\	mo-	.	2a\	mo-	.	2dd\	Bo-	.
2G\	.	.	2d\	-ie,	.	2g\	-ie,	.	2dd\	-że	.
=9-	=9-	=9-	=9-	=9-	=9-	=9-	=9-	=9-	=9-	=9-	=9-
1E\	-zmie	.	1g\	Bo-	.	1c#\X	Bo-	.	1ee\	nie-	.
.	.	.	.	.	.	.	.	.	.	.	.
2D/	-rzo-	.	2.f\	-że	.	2.d\	.	.	2a\	.	.
2B\	ny,	.	.	.	.	.	.	.	2g/	-zmie-	.
.	.	.	8e\L	niez-	.	8cny/L	-że	.	.	.	.
.	.	.	8d\J	-mie-	.	8B/J	nie-	.	.	.	.
=10-	=10-	=10-	=10-	=10-	=10-	=10-	=10-	=10-	=10-	=10-	=10-
1A\	.	.	4e\	-rzo-	.	4c/	-zmie-	.	2a\	-rzo-	.
.	.	.	4f\	-ny,	.	2d\	-rzo-	.	.	.	.
.	.	.	2e\	.	.	.	.	.	2a\	-ny,	.
.	.	.	.	.	.	4e\	-ny,	.	.	.	.
!!LO:PB:g=original
2D/	.	.	2d\	A	.	2f#\X	A	.	2.dd\	A	.
2.G\	A	.	2B/	przyy-	.	2d\	przyy-	.	.	.	.
.	.	.	.	.	.	.	.	.	4cc\	przyy-	.
=11-	=11-	=11-	=11-	=11-	=11-	=11-	=11-	=11-	=11-	=11-	=11-
.	.	.	2B/	.	.	2d\	.	.	4b\	.	.
4F\	przyy-	.	.	.	.	.	.	.	4a\	.	.
4E\	-mi	.	2B/	-mi	.	4e\	.	.	4g/	.	.
4D\	.	.	.	.	.	4f\	.	.	4f/	-mi	.
4C/	.	.	2e\	.	.	4g\	-mi	.	4e/	.	.
4D/	w	.	.	.	.	4f\	.	.	4f/	w	.
4E\	u-	.	4d\	w	.	2e\	.	.	4g\	.	.
4F\	-ſzy	.	4c\	.	.	.	.	.	4a\	u-	.
=12-	=12-	=12-	=12-	=12-	=12-	=12-	=12-	=12-	=12-	=12--	=12-
2G\	ſwo-	.	4B/	.	.	2.d\	w uſzy	.	4b\	-ſzy	.
.	.	.	4A/	uſzy	.	.	.	.	4cc\	.	.
2G\	-ie	.	4B/	.	.	.	.	.	2dd\	ſwo-	.
.	.	.	4c/	ſwo-	.	4e\	ſwo-	.	.	.	.
4D/	ſwo-	.	2d\	-ie	.	1f\	-ie	.	4d/	ie	.
4C/	-ie	.	.	.	.	.	.	.	4e/	.	.
4D/	.	.	2A/	.	.	.	.	.	4f/	głos	.
4E\	głos	.	.	.	.	.	.	.	4g/	.	.
=13-	=13-	=13-	=13-	=13-	=13-	=13-	=13-	=13-	=13-	=13-	=13-
2F\	.	.	2.d\	głos	.	2f\	głos	.	4a\	.	.
.	.	.	.	.	.	.	.	.	8g\L	.	.
.	.	.	.	.	.	.	.	.	8a\J	.	.
2G\	móy	.	.	.	.	1d\	móy	.	2.b\	móy	.
.	.	.	4c/	.	.	.	.	.	.	.	.
2GG/	u-	.	2B/	móy	.	.	.	.	.	.	.
.	.	.	.	.	.	.	.	.	4a\	ut-	.
2C/	-tra-	.	4c/	.	.	2e\	u-	.	1g\	-ra-	.
.	.	.	4B/	u-	.	.	.	.	.	.	.
=14-	=14-	=14-	=14-	=14-	=14-	=14-	=14-	=14-	=14-	=14-	=14-
1D\	-pio-	.	4A/	-tra-	.	2.d\	-tra-	.	.	.	.
.	.	.	4G/	-pio-	.	.	.	.	.	.	.
.	.	.	2A/	-ny.	.	.	.	.	2f/	-pio-	.
.	.	.	.	.	.	4c/	-pio-	.	.	.	.
000GG/	-ny.	.	000G/	.	.	000B/	-ny.	.	000g\	-ny.	.
==	==	==	==	==	==	==	==	==	==	==	==
*-	*-	*-	*-	*-	*-	*-	*-	*-	*-	*-	*-
!!!RDF**kern: l = terminal long
!!!system-decoration: s1,s2,s3,s4
!!!ENC: Leszek Kubiak
!!!END: data 202-02-12
!!!URL-scan: https://polona.pl/item/melodiae-na-psalterz-polski,Nzk3MTM4ODQ/136 Scan on Polona
!!!IIIF: https://polona.pl/iiif/item/Nzk3MTM4ODQ/manifest.json
